def func():
movej([-2.301302433013916, -2.0532779693603516, -0.6237371563911438, -1.9190797805786133, 2.6070544719696045, -1.6540166139602661], a=1.4, v=0.2)
movej([-2.2566189765930176, -2.144726514816284, -0.4958549439907074, -1.8814727067947388, 2.6002230644226074, -1.5678128004074097], a=1.4, v=0.2)
movej([-2.2091193199157715, -2.0989956855773926, -0.6434310674667358, -1.7035784721374512, 2.589461326599121, -1.4788025617599487], a=1.4, v=0.2)
movej([-2.21509051322937, -2.1018810272216797, -0.6512230038642883, -1.6082572937011719, 2.461414098739624, -1.462040662765503], a=1.4, v=0.2)
movej([-2.243501901626587, -2.2569198608398438, -0.3063654899597168, -1.9964653253555298, 2.5180277824401855, -1.828698992729187], a=1.4, v=0.2)
movej([-2.170109748840332, -2.1697919368743896, -0.41765978932380676, -1.9687979221343994, 2.445647716522217, -1.7981756925582886], a=1.4, v=0.2)
movej([-2.2486519813537598, -2.1406989097595215, -0.52783203125, -1.9512280225753784, 2.518522262573242, -1.732428789138794], a=1.4, v=0.2)
movej([-2.277709484100342, -2.1112265586853027, -0.6349995732307434, -1.9594098329544067, 2.6266984939575195, -1.9234583377838135], a=1.4, v=0.2)
movej([-2.289034843444824, -2.0233519077301025, -0.78437340259552, -1.847702980041504, 2.62579345703125, -1.8657602071762085], a=1.4, v=0.2)
movej([-2.277029037475586, -1.8937304019927979, -0.9316394925117493, -1.6710010766983032, 2.5045058727264404, -1.5798238515853882], a=1.4, v=0.2)
movej([-2.285541296005249, -1.7348603010177612, -1.1232881546020508, -1.543631672859192, 2.52908992767334, -1.5121145248413086], a=1.4, v=0.2)
movej([-2.319868803024292, -1.9585171937942505, -0.7493473887443542, -2.047323226928711, 2.548705577850342, -1.9013035297393799], a=1.4, v=0.2)
movej([-2.2985706329345703, -2.045248031616211, -0.5402290225028992, -2.296489715576172, 2.491452693939209, -1.8294484615325928], a=1.4, v=0.2)
movej([-2.3173508644104004, -2.089104652404785, -0.3501974046230316, -2.4459972381591797, 2.4004063606262207, -1.635871171951294], a=1.4, v=0.2)
movej([-2.2778642177581787, -2.088046073913574, -0.3396945297718048, -2.635740280151367, 2.4981026649475098, -1.6642332077026367], a=1.4, v=0.2)
movej([-2.316009521484375, -1.926272988319397, -0.7020209431648254, -2.462506055831909, 2.582063913345337, -1.8618502616882324], a=1.4, v=0.2)
movej([-2.217585325241089, -2.169278621673584, -0.26042938232421875, -2.7229461669921875, 2.4521050453186035, -1.8503684997558594], a=1.4, v=0.2)
movej([-2.2260220050811768, -1.9098232984542847, -0.6933836340904236, -2.3992843627929688, 2.4512016773223877, -1.6073532104492188], a=1.4, v=0.2)
movej([-2.2394590377807617, -2.210343599319458, -0.1531762182712555, -2.900022506713867, 2.378411054611206, -1.6330351829528809], a=1.4, v=0.2)
movej([-2.180652618408203, -2.0074849128723145, -0.3814108371734619, -2.6133031845092773, 2.2199270725250244, -1.3071638345718384], a=1.4, v=0.2)
movej([-2.284323215484619, -1.8337146043777466, -0.7683936357498169, -2.4914708137512207, 2.387317657470703, -1.3999571800231934], a=1.4, v=0.2)
movej([-2.2607693672180176, -1.9168946743011475, -0.5459610223770142, -2.62308406829834, 2.282066822052002, -1.4375079870224], a=1.4, v=0.2)
movej([-2.2519919872283936, -1.7993123531341553, -0.7937065362930298, -2.5780587196350098, 2.489677667617798, -1.3605358600616455], a=1.4, v=0.2)
movej([-2.1841588020324707, -1.8007017374038696, -0.7310582399368286, -2.5543906688690186, 2.356649398803711, -1.0757882595062256], a=1.4, v=0.2)
movej([-2.095684051513672, -1.9045748710632324, -0.436153382062912, -2.6535563468933105, 2.2442309856414795, -1.1327097415924072], a=1.4, v=0.2)
movej([-2.1210074424743652, -1.8733633756637573, -0.5383864641189575, -2.7015020847320557, 2.334301710128784, -1.019566297531128], a=1.4, v=0.2)
movej([-2.093696355819702, -1.7627438306808472, -0.7050562500953674, -2.5515928268432617, 2.3809900283813477, -0.9429514408111572], a=1.4, v=0.2)
movej([-1.9603718519210815, -1.7716530561447144, -0.7027312517166138, -2.4623427391052246, 2.231473207473755, -0.820728063583374], a=1.4, v=0.2)
movej([-1.8687376976013184, -1.7986403703689575, -0.6321272850036621, -2.465986967086792, 2.1135573387145996, -0.8085465431213379], a=1.4, v=0.2)
movej([-1.9542492628097534, -1.6504257917404175, -0.8827136754989624, -2.3128461837768555, 2.2491750717163086, -0.9377596378326416], a=1.4, v=0.2)
movej([-2.0361318588256836, -1.6347689628601074, -0.9427239298820496, -2.448720932006836, 2.3267714977264404, -0.8756046295166016], a=1.4, v=0.2)
movej([-1.8941346406936646, -1.5374433994293213, -1.016248106956482, -2.202972173690796, 2.261894702911377, -0.5341296195983887], a=1.4, v=0.2)
movej([-1.934374451637268, -1.4713103771209717, -1.0187091827392578, -2.182089328765869, 2.279653787612915, -0.71775221824646], a=1.4, v=0.2)
movej([-2.0230817794799805, -1.6008479595184326, -0.793283224105835, -2.577744722366333, 2.30194091796875, -0.843914270401001], a=1.4, v=0.2)
movej([-2.0652151107788086, -1.335832118988037, -1.148940920829773, -2.287498712539673, 2.4229183197021484, -0.5269424915313721], a=1.4, v=0.2)
movej([-2.0865328311920166, -1.218353271484375, -1.3316004276275635, -2.172079086303711, 2.44146728515625, -0.5955135822296143], a=1.4, v=0.2)
movej([-2.058194637298584, -1.265807032585144, -1.3303053379058838, -2.1853818893432617, 2.4605636596679688, -0.81807541847229], a=1.4, v=0.2)
movej([-2.0136921405792236, -1.065767765045166, -1.6840884685516357, -1.7564363479614258, 2.5403802394866943, -0.4506094455718994], a=1.4, v=0.2)
movej([-1.875937819480896, -1.0936074256896973, -1.6136343479156494, -1.7410393953323364, 2.3954644203186035, -0.35790085792541504], a=1.4, v=0.2)
socket_open("192.168.10.100", 30002)
socket_send_string("Script completed")
socket_close()
end
func()
